usr/share/icons/biglinux-icons-material/24/actions/gnumeric-format-border-thick-bottom.svg

<svg xmlns="http://www.w3.org/2000/svg" viewBox="0 0 24 24"><defs id="defs3051"><style id="current-color-scheme" type="text/css">.ColorScheme-Text{color:#dedede}</style></defs><path d="M4 3v17h1v-8h7v8h1v-8h7v8h1V3H4zm1 1h7v7H5V4zm8 0h7v7h-7V4z" class="ColorScheme-Text" style="fill:currentColor;fill-opacity:.1;stroke:none"/><path d="M5 4v7h7V4H5zm8 0v7h7V4h-7zm-8 8v7h7v-7H5zm8 0v7h7v-7h-7z" class="ColorScheme-Text" style="fill:currentColor;fill-opacity:.5;stroke:none"/><path d="M4 18v2h17v-2z" class="ColorScheme-Text" style="fill:currentColor;fill-opacity:1;stroke:none"/></svg>

<svg xmlns="http://www.w3.org/2000/svg" viewBox="0 0 24 24">
  <defs id="defs3051">
    <style type="text/css" id="current-color-scheme">
      .ColorScheme-Text {
        color:#dedede;
      }
      </style>
  </defs>
 <path 
     style="fill:currentColor;fill-opacity:0.1;stroke:none" 
     d="M 4 3 L 4 4 L 4 11 L 4 12 L 4 20 L 5 20 L 5 12 L 12 12 L 12 20 L 13 20 L 13 12 L 20 12 L 20 20 L 21 20 L 21 3 L 5 3 L 4 3 z M 5 4 L 12 4 L 12 11 L 5 11 L 5 4 z M 13 4 L 20 4 L 20 11 L 13 11 L 13 4 z "
     class="ColorScheme-Text"
     />
 <path 
     style="fill:currentColor;fill-opacity:0.5;stroke:none" 
     d="M 5 4 L 5 11 L 12 11 L 12 4 L 5 4 z M 13 4 L 13 11 L 20 11 L 20 4 L 13 4 z M 5 12 L 5 19 L 12 19 L 12 12 L 5 12 z M 13 12 L 13 19 L 20 19 L 20 12 L 13 12 z "
     class="ColorScheme-Text"
     />
 <path 
     style="fill:currentColor;fill-opacity:1.0;stroke:none" 
     d="m 4,18 0,2 17,0 0,-2 z"
     class="ColorScheme-Text"
     />
</svg>
